app/images/src/logo.svg

<svg width="182" height="56" viewBox="0 0 182 56" fill="none" xmlns="http://www.w3.org/2000/svg">
  <path fill-rule="evenodd" clip-rule="evenodd" d="M38.742 26.8992C38.5598 26.7591 38.3675 26.619 38.1752 26.4789C37.9829 26.3388 37.7906 26.1987 37.6085 26.0586C37.2846 24.0572 36.5154 22.2159 35.3819 20.6147C35.3819 21.3352 35.301 22.6162 35.0986 24.2974C35.081 24.4189 35.0634 24.5443 35.0454 24.6726C34.9805 25.1357 34.9103 25.6372 34.8152 26.1387C34.5723 27.4596 34.2484 28.9006 33.8031 30.4618V30.4619V30.462L33.803 30.4621V30.4622L33.8029 30.4623V30.4624V30.4625L33.8028 30.4626V30.4627V30.4628C33.6814 30.9028 33.5601 31.3427 33.3983 31.7827V31.3024V30.7019C33.4388 29.7813 33.4388 28.8606 33.4388 27.94C33.4388 27.0193 33.4388 26.0986 33.3983 25.218C33.3983 24.5375 33.3578 23.817 33.3173 23.1365C33.2364 21.3753 33.0744 19.6941 32.9125 18.0529C32.9125 18.0529 32.872 17.6926 32.8315 17.5325L32.7101 16.6919L35.3414 15.8113C36.1511 17.2523 37.6489 18.2931 39.3897 18.4532C39.4706 18.4532 39.5617 18.4632 39.6528 18.4732C39.7439 18.4832 39.835 18.4932 39.9159 18.4932C42.4258 18.4932 44.5309 16.772 45.0572 14.4503C45.1382 14.0901 45.1786 13.6898 45.1786 13.2895C45.1786 12.9292 45.1382 12.569 45.0572 12.2487C44.6929 10.4475 43.3569 8.9664 41.5757 8.36598C41.0494 8.20586 40.4827 8.08578 39.8755 8.08578C36.9607 8.08578 34.6128 10.4074 34.6128 13.2895C34.6128 13.6097 34.6532 13.9299 34.6937 14.2502C34.1633 14.425 33.6329 14.621 33.0869 14.8228L33.0867 14.8229C32.8827 14.8983 32.6764 14.9745 32.4672 15.0508C31.0503 6.12437 28.1761 0 24.897 0C21.618 0 18.7437 6.08435 17.3268 15.0107C8.82555 11.7684 2.06501 11.168 0.40524 13.97C-1.25454 16.772 2.63176 22.2559 9.75664 27.98C2.63176 33.664 -1.25454 39.1079 0.364757 41.95C2.02453 44.792 8.78507 44.1916 17.3268 40.9492C18.7437 49.8756 21.618 56 24.897 56C28.1761 56 31.0503 49.9157 32.4672 40.9893C40.9685 44.2316 47.729 44.832 49.3888 42.03C51.1295 39.148 47.2028 33.664 40.1184 27.98C47.2432 22.2959 51.1295 16.852 49.5102 14.01C48.9435 13.0493 47.81 12.4889 46.2312 12.2888C46.3121 12.6891 46.3931 13.0893 46.3931 13.5297C46.3931 14.01 46.3121 14.4903 46.1907 14.9307C46.4741 15.0908 46.6765 15.2909 46.7979 15.5711C48.0529 17.7727 44.7333 22.1758 38.742 26.8992ZM9.95906 28.1401C9.91857 28.1001 9.83761 28.02 9.75664 27.98C9.79713 28.02 9.87809 28.1001 9.95906 28.1401ZM24.8565 27.2595H25.4638C25.9091 27.2595 26.2329 27.1794 26.3949 26.9793C26.5568 26.7791 26.6782 26.4589 26.7187 25.9385C26.7187 25.8329 26.73 25.7384 26.7407 25.6492C26.7502 25.5693 26.7592 25.4938 26.7592 25.4182V25.178C26.7592 24.9778 26.6378 24.8177 26.5163 24.7377C26.3544 24.6176 26.1115 24.5776 25.7876 24.5776H25.1399L24.8565 27.2595ZM38.1752 12.0086L37.9323 14.2902C37.9323 14.4904 37.9323 14.6505 38.0942 14.7705V14.9707C38.0942 15.2109 38.1347 15.411 38.2157 15.5711C38.2562 15.7312 38.3776 15.8914 38.4991 16.0114C38.661 16.1315 38.8229 16.2116 39.0253 16.2916C39.2277 16.3717 39.4706 16.4117 39.754 16.4117C40.0779 16.4117 40.4017 16.3317 40.6446 16.2516C40.8875 16.1716 41.0899 16.0515 41.2519 15.8513C41.4138 15.6912 41.5352 15.4911 41.6162 15.2509C41.6972 15.0107 41.7376 14.7305 41.7781 14.4503L41.8186 13.9299H40.5637L40.4827 14.5304C40.4422 14.6104 40.4422 14.7305 40.4422 14.7705C40.4422 14.7871 40.4353 14.8106 40.4271 14.838C40.4156 14.8769 40.4017 14.9238 40.4017 14.9707C40.384 15.0058 40.374 15.0409 40.365 15.0726C40.3535 15.1133 40.3435 15.1484 40.3208 15.1708C40.2803 15.2509 40.2398 15.2909 40.1993 15.331C40.1677 15.3935 40.1361 15.4072 40.0852 15.4292L40.0851 15.4293C40.0709 15.4354 40.0551 15.4423 40.0374 15.451C39.9564 15.4911 39.8755 15.4911 39.7945 15.4911C39.5516 15.4911 39.4302 15.411 39.3492 15.2509C39.3087 15.1708 39.2682 15.0107 39.2682 14.8506V14.5304L39.5516 11.6883C39.5516 11.6483 39.5617 11.6083 39.5718 11.5683C39.582 11.5282 39.5921 11.4882 39.5921 11.4482C39.5921 11.3681 39.5921 11.2881 39.6326 11.208C39.6503 11.1729 39.6603 11.1378 39.6693 11.1061C39.6808 11.0654 39.6908 11.0303 39.7135 11.0079C39.754 10.9278 39.7945 10.8878 39.835 10.8477C39.8666 10.7852 39.8982 10.7715 39.9491 10.7495C39.9634 10.7433 39.9792 10.7364 39.9969 10.7277C40.0779 10.6876 40.1588 10.6876 40.2398 10.6876H40.4017C40.422 10.6876 40.4422 10.6976 40.4625 10.7076C40.4827 10.7177 40.5029 10.7277 40.5232 10.7277L40.6041 10.8077C40.6041 10.8277 40.6143 10.8377 40.6244 10.8477C40.6345 10.8578 40.6446 10.8678 40.6446 10.8878C40.6851 10.9278 40.6851 10.9678 40.6851 11.0079V11.1279V11.2881V11.4482V11.6083L40.6041 12.2087H41.8996L41.9805 11.6483V11.2881C41.9805 11.1279 41.9805 11.0079 41.9401 10.8878C41.8996 10.6876 41.8186 10.4875 41.6972 10.3274C41.5757 10.1272 41.4138 10.0071 41.1709 9.92709C40.928 9.84703 40.6446 9.807 40.3208 9.807C39.9564 9.807 39.6326 9.88706 39.3897 9.96712C39.1063 10.0872 38.9039 10.2073 38.742 10.4074C38.58 10.6076 38.4586 10.8477 38.3776 11.0879C38.2562 11.3681 38.2157 11.6483 38.1752 12.0086ZM3.19851 15.451C4.49395 13.2895 9.99954 13.8899 17.1649 16.6519C17.0839 17.1322 17.0435 17.5726 17.003 18.0529C15.4646 19.2938 14.2097 20.8549 13.3596 22.6562C14.0073 22.2959 15.1408 21.7355 16.7196 21.0951C17.0546 20.9422 17.4224 20.8055 17.8021 20.6644H17.8022H17.8023L17.8028 20.6642C18.0194 20.5837 18.2399 20.5018 18.4603 20.4146C19.7153 19.9743 21.1726 19.4939 22.7515 19.0936C22.9741 19.0336 23.1968 18.9836 23.4194 18.9335C23.6421 18.8835 23.8647 18.8335 24.0874 18.7734C24.0874 18.7734 24.3707 18.6133 24.978 18.3331C24.3707 18.6533 23.7635 18.9736 23.1158 19.2938C22.9888 19.3566 22.8618 19.4255 22.7323 19.4958L22.7322 19.4959H22.7321L22.732 19.496L22.7318 19.4961C22.5314 19.6049 22.325 19.7169 22.1037 19.8142C22.0228 19.8542 21.9418 19.8942 21.8204 19.9743C21.618 20.0743 21.4257 20.1844 21.2334 20.2945H21.2333V20.2946H21.2332C21.041 20.4047 20.8487 20.5147 20.6464 20.6147C20.3326 20.8009 20.0189 20.981 19.7075 21.1598C19.2153 21.4423 18.729 21.7215 18.2579 22.0157C18.096 22.0958 17.9745 22.1758 17.8126 22.2959L17.4483 22.5361L16.4767 23.1365C15.1408 23.9771 13.6834 24.9778 12.2665 26.0186C11.9831 26.2187 11.6998 26.4189 11.4569 26.619C11.4367 26.619 11.4265 26.629 11.4164 26.639C11.4063 26.649 11.3962 26.659 11.3759 26.659C11.3355 26.6991 11.295 26.7291 11.2545 26.7591C11.214 26.7891 11.1735 26.8192 11.133 26.8592C5.22263 22.0958 1.90308 17.6526 3.19851 15.451ZM28.5809 25.4182C28.5809 25.5783 28.5809 25.7784 28.5404 25.9786C28.4999 26.4589 28.3785 26.8992 28.2166 27.2194C28.0546 27.5797 27.8522 27.8199 27.5688 28.02C27.2855 28.2202 27.0021 28.3803 26.6782 28.4603C26.3544 28.5404 25.99 28.5804 25.5852 28.5804H24.6946L24.2493 32.7434H22.3062L23.3182 23.2166H26.2734C27.8522 23.2166 28.5809 23.9371 28.5809 25.4182ZM16.5172 25.158C16.5273 25.148 16.5374 25.138 16.5577 25.138C16.5172 25.138 16.4767 25.178 16.4767 25.178C16.3957 25.218 16.3553 25.258 16.3148 25.2981C16.3957 25.258 16.4362 25.218 16.4767 25.178C16.4969 25.178 16.5071 25.168 16.5172 25.158ZM24.978 52.8377C22.4276 52.8377 20.2011 47.7541 19.0271 40.2688C19.2295 40.1887 19.4421 40.0986 19.6546 40.0086L19.6547 40.0085L19.6549 40.0084C19.8673 39.9184 20.0797 39.8284 20.282 39.7484C21.7394 40.3088 23.3182 40.629 24.978 40.629C25.3828 40.629 25.7876 40.629 26.1925 40.589C25.5447 40.1887 24.4517 39.5082 23.1158 38.5075C22.924 38.3523 22.7171 38.1971 22.5016 38.0355L22.5012 38.0351L22.5009 38.0349L22.5008 38.0348C22.2164 37.8215 21.9172 37.597 21.618 37.3467C20.6059 36.5061 19.4724 35.5054 18.3389 34.3445C18.015 34.0243 17.6912 33.7041 17.4078 33.3438C17.4078 33.3438 17.7317 33.544 18.3389 33.9042C18.3794 33.9242 18.4097 33.9442 18.4401 33.9643C18.4705 33.9843 18.5008 34.0043 18.5413 34.0243C18.9637 34.2946 19.4013 34.5497 19.8449 34.8083L19.845 34.8084C20.1241 34.9711 20.4055 35.1352 20.6869 35.3052C21.4965 35.7856 22.3062 36.2259 23.1158 36.6262C23.4194 36.7863 23.7332 36.9464 24.047 37.1065C24.3607 37.2666 24.6744 37.4267 24.978 37.5868C25.909 38.0672 26.84 38.5074 27.7711 38.9477L27.7713 38.9478C28.0748 39.0879 28.3885 39.228 28.7022 39.368L28.7024 39.3681C29.0161 39.5082 29.3298 39.6483 29.6334 39.7884C29.7468 39.8333 29.8634 39.8781 29.9823 39.9239C30.2877 40.0414 30.6083 40.1647 30.9289 40.3088C29.7549 47.7941 27.5284 52.8377 24.978 52.8377ZM20.282 39.7484C20.1294 39.6855 19.9768 39.6226 19.8242 39.5573C19.9716 39.6239 20.1231 39.688 20.282 39.7484ZM19.8242 39.5573C19.491 39.4146 19.1578 39.2601 18.8247 39.0679C18.9225 39.1163 19.0186 39.1646 19.1141 39.2126C19.3498 39.3311 19.5815 39.4477 19.8242 39.5573ZM17.9131 38.8867L17.9129 38.8868C17.6405 38.9978 17.3824 39.1029 17.1244 39.188C9.95905 41.9099 4.41298 42.5504 3.11755 40.3488C1.8626 38.1472 5.18215 33.7441 11.1735 29.0207C11.3557 29.1608 11.548 29.3009 11.7403 29.441C11.9326 29.5811 12.1249 29.7212 12.307 29.8613C12.7928 33.0636 14.4931 35.9056 16.9625 37.827C17.3673 38.1472 17.8126 38.4675 18.2579 38.7477C18.1401 38.7943 18.0257 38.8409 17.9137 38.8865L17.9131 38.8867ZM31.0098 16.2516L31.0099 16.2517C31.0402 16.4518 31.0706 16.6519 31.0908 16.852C31.0908 16.888 31.099 16.924 31.108 16.9636C31.119 17.0122 31.1313 17.0661 31.1313 17.1322C31.1313 17.0122 31.1313 16.9321 31.0908 16.852C31.0503 16.4119 31.0099 16.0118 30.9694 15.6117V15.6112C29.7954 8.1258 27.5688 3.04217 25.0185 3.04217C22.4681 3.04217 20.2416 8.08578 19.0676 15.5711C18.9866 15.9714 18.9056 16.3717 18.8652 16.812C19.3509 16.5718 19.8367 16.3317 20.363 16.1315C21.7799 15.6112 23.3587 15.2909 24.978 15.2909C26.6378 15.2909 28.2166 15.6112 29.6739 16.1716C29.8763 16.0915 30.0889 16.0014 30.3014 15.9114C30.5139 15.8213 30.7265 15.7312 30.9289 15.6512C30.9491 15.8513 30.9795 16.0515 31.0098 16.2516ZM46.7574 40.4289C45.462 42.5904 39.9564 41.99 32.7911 39.228C32.872 38.7477 32.9125 38.3074 32.953 37.827C35.3819 35.9056 37.0822 33.1036 37.6085 29.9014C37.6894 29.381 37.7299 28.8206 37.7704 28.2602C37.9985 28.4575 38.2467 28.635 38.4866 28.8067H38.4867C38.5874 28.8787 38.6867 28.9497 38.7824 29.0207C44.7333 33.8242 48.0529 38.2273 46.7574 40.4289Z" fill="url(#paint0_linear_2_8)" />
  <path fill-rule="evenodd" clip-rule="evenodd" d="M75.6555 42.5307H69.989L68.9877 45.1557H63.875L70.3937 30.0943H75.336L81.8547 45.1557H76.6568L75.6555 42.5307ZM74.2709 38.873L72.8222 35.0861L71.3736 38.873H74.2709ZM85.9023 44.4995C84.6383 43.8325 83.6477 42.9001 82.9305 41.7024C82.2133 40.5046 81.8547 39.1455 81.8547 37.625C81.8547 36.1045 82.2133 34.7454 82.9305 33.5476C83.6477 32.3499 84.6383 31.4175 85.9023 30.7505C87.1663 30.0835 88.5864 29.75 90.1629 29.75C91.6115 29.75 92.9038 30.0082 94.04 30.5246C95.1762 31.041 96.1135 31.7869 96.852 32.7623L93.6779 35.624C92.7547 34.4477 91.6683 33.8596 90.4185 33.8596C89.3676 33.8596 88.5225 34.2003 87.8835 34.8817C87.2444 35.563 86.9248 36.4775 86.9248 37.625C86.9248 38.7725 87.2444 39.687 87.8835 40.3683C88.5225 41.0497 89.3676 41.3904 90.4185 41.3904C91.6683 41.3904 92.7547 40.8023 93.6779 39.626L96.852 42.4877C96.1135 43.4631 95.1762 44.209 94.04 44.7254C92.9038 45.2418 91.6115 45.5 90.1629 45.5C88.5864 45.5 87.1663 45.1665 85.9023 44.4995ZM108.249 42.5307H102.583L101.581 45.1557H96.4686L102.987 30.0943H107.93L114.448 45.1557H109.25L108.249 42.5307ZM106.864 38.873L105.416 35.0861L103.967 38.873H106.864ZM115.258 30.0943H122.607C124.269 30.0943 125.735 30.3991 127.006 31.0087C128.277 31.6183 129.264 32.4897 129.967 33.623C130.67 34.7562 131.022 36.0902 131.022 37.625C131.022 39.1598 130.67 40.4938 129.967 41.627C129.264 42.7603 128.277 43.6317 127.006 44.2413C125.735 44.8509 124.269 45.1557 122.607 45.1557H115.258V30.0943ZM122.394 41.1967C123.474 41.1967 124.336 40.8847 124.983 40.2608C125.629 39.6368 125.952 38.7582 125.952 37.625C125.952 36.4918 125.629 35.6132 124.983 34.9892C124.336 34.3653 123.474 34.0533 122.394 34.0533H120.285V41.1967H122.394ZM145.252 41.3258V45.1557H132.854V30.0943H144.975V33.9242H137.796V35.6885H144.102V39.3463H137.796V41.3258H145.252ZM160.505 45.1557L160.463 38.292L157.225 43.8002H155.009L151.771 38.5287V45.1557H147.191V30.0943H151.324L156.181 38.1199L160.91 30.0943H165.043L165.085 45.1557H160.505ZM176.376 39.6906V45.1557H171.349V39.626L165.725 30.0943H171.029L174.075 35.3012L177.143 30.0943H182L176.376 39.6906Z" fill="white" />
  <path fill-rule="evenodd" clip-rule="evenodd" d="M71.9695 11.7044C72.8384 12.4384 73.2729 13.4478 73.2729 14.7324C73.2729 16.0171 72.8384 17.0236 71.9695 17.7519C71.1006 18.4803 69.9002 18.8445 68.3681 18.8445H65.1441V22.6468H63.875V10.6032H68.3681C69.9002 10.6032 71.1006 10.9703 71.9695 11.7044ZM71.0606 16.9433C71.6894 16.4214 72.0038 15.6845 72.0038 14.7324C72.0038 13.7575 71.6894 13.0091 71.0606 12.4872C70.4318 11.9653 69.5229 11.7044 68.3338 11.7044H65.1441V17.7261H68.3338C69.5229 17.7261 70.4318 17.4652 71.0606 16.9433ZM78.2033 21.95C77.2372 21.4166 76.4827 20.6854 75.9396 19.7563C75.3965 18.8272 75.125 17.7835 75.125 16.625C75.125 15.4665 75.3965 14.4228 75.9396 13.4937C76.4827 12.5646 77.2372 11.8334 78.2033 11.3C79.1694 10.7667 80.2469 10.5 81.436 10.5C82.625 10.5 83.6968 10.7638 84.6515 11.2914C85.6061 11.8191 86.3578 12.5503 86.9066 13.4851C87.4554 14.4199 87.7298 15.4665 87.7298 16.625C87.7298 17.7835 87.4554 18.8301 86.9066 19.7649C86.3578 20.6997 85.6061 21.4309 84.6515 21.9586C83.6968 22.4862 82.625 22.75 81.436 22.75C80.2469 22.75 79.1694 22.4833 78.2033 21.95ZM84.0084 20.9693C84.7744 20.5391 85.3746 19.9427 85.8091 19.18C86.2435 18.4172 86.4607 17.5655 86.4607 16.625C86.4607 15.6845 86.2435 14.8328 85.8091 14.07C85.3746 13.3073 84.7744 12.7109 84.0084 12.2807C83.2424 11.8506 82.3849 11.6355 81.436 11.6355C80.487 11.6355 79.6267 11.8506 78.855 12.2807C78.0833 12.7109 77.4773 13.3073 77.0372 14.07C76.597 14.8328 76.3769 15.6845 76.3769 16.625C76.3769 17.5655 76.597 18.4172 77.0372 19.18C77.4773 19.9427 78.0833 20.5391 78.855 20.9693C79.6267 21.3994 80.487 21.6145 81.436 21.6145C82.3849 21.6145 83.2424 21.3994 84.0084 20.9693ZM106.697 10.6032L102.65 22.6468H101.312L97.7965 12.3754L94.2637 22.6468H92.9432L88.896 10.6032H90.1993L93.6635 20.9607L97.2477 10.6032H98.431L101.964 21.0123L105.479 10.6032H106.697ZM117.501 21.5456V22.6468H109.012V10.6032H117.244V11.7044H110.281V15.9884H116.489V17.0723H110.281V21.5456H117.501ZM128.683 22.6468L125.939 18.7756C125.63 18.81 125.31 18.8272 124.978 18.8272H121.754V22.6468H120.485V10.6032H124.978C126.51 10.6032 127.711 10.9703 128.58 11.7044C129.449 12.4384 129.883 13.4478 129.883 14.7324C129.883 15.673 129.646 16.4673 129.171 17.1153C128.697 17.7634 128.019 18.2308 127.139 18.5176L130.072 22.6468H128.683ZM127.671 16.9519C128.3 16.4243 128.614 15.6845 128.614 14.7324C128.614 13.7575 128.3 13.0091 127.671 12.4872C127.042 11.9653 126.133 11.7044 124.944 11.7044H121.754V17.7433H124.944C126.133 17.7433 127.042 17.4795 127.671 16.9519ZM134.882 21.9586C133.927 21.4309 133.179 20.6997 132.635 19.7649C132.092 18.8301 131.821 17.7835 131.821 16.625C131.821 15.4665 132.092 14.4199 132.635 13.4851C133.179 12.5503 133.93 11.8191 134.891 11.2914C135.851 10.7638 136.926 10.5 138.115 10.5C139.006 10.5 139.83 10.6491 140.584 10.9473C141.339 11.2456 141.979 11.6814 142.505 12.2549L141.699 13.0636C140.761 12.1115 139.578 11.6355 138.149 11.6355C137.2 11.6355 136.337 11.8535 135.559 12.2893C134.782 12.7252 134.173 13.3216 133.733 14.0787C133.293 14.8357 133.073 15.6845 133.073 16.625C133.073 17.5655 133.293 18.4143 133.733 19.1713C134.173 19.9284 134.782 20.5248 135.559 20.9607C136.337 21.3965 137.2 21.6145 138.149 21.6145C139.59 21.6145 140.773 21.1327 141.699 20.1692L142.505 20.9779C141.979 21.5514 141.336 21.9901 140.576 22.2941C139.815 22.598 138.989 22.75 138.098 22.75C136.909 22.75 135.837 22.4862 134.882 21.9586ZM146.972 21.95C146.006 21.4166 145.252 20.6854 144.709 19.7563C144.166 18.8272 143.894 17.7835 143.894 16.625C143.894 15.4665 144.166 14.4228 144.709 13.4937C145.252 12.5646 146.006 11.8334 146.972 11.3C147.938 10.7667 149.016 10.5 150.205 10.5C151.394 10.5 152.466 10.7638 153.421 11.2914C154.375 11.8191 155.127 12.5503 155.676 13.4851C156.224 14.4199 156.499 15.4665 156.499 16.625C156.499 17.7835 156.224 18.8301 155.676 19.7649C155.127 20.6997 154.375 21.4309 153.421 21.9586C152.466 22.4862 151.394 22.75 150.205 22.75C149.016 22.75 147.938 22.4833 146.972 21.95ZM152.777 20.9693C153.543 20.5391 154.144 19.9427 154.578 19.18C155.013 18.4172 155.23 17.5655 155.23 16.625C155.23 15.6845 155.013 14.8328 154.578 14.07C154.144 13.3073 153.543 12.7109 152.777 12.2807C152.011 11.8506 151.154 11.6355 150.205 11.6355C149.256 11.6355 148.396 11.8506 147.624 12.2807C146.852 12.7109 146.246 13.3073 145.806 14.07C145.366 14.8328 145.146 15.6845 145.146 16.625C145.146 17.5655 145.366 18.4172 145.806 19.18C146.246 19.9427 146.852 20.5391 147.624 20.9693C148.396 21.3994 149.256 21.6145 150.205 21.6145C151.154 21.6145 152.011 21.3994 152.777 20.9693ZM159.346 10.6032H164.233C165.502 10.6032 166.623 10.8584 167.595 11.3689C168.566 11.8793 169.321 12.5904 169.858 13.5023C170.396 14.4142 170.664 15.455 170.664 16.625C170.664 17.7949 170.396 18.8358 169.858 19.7477C169.321 20.6596 168.566 21.3707 167.595 21.8811C166.623 22.3916 165.502 22.6468 164.233 22.6468H159.346V10.6032ZM164.165 21.5456C165.216 21.5456 166.137 21.3363 166.926 20.9177C167.715 20.499 168.326 19.9198 168.761 19.18C169.195 18.4401 169.412 17.5885 169.412 16.625C169.412 15.6615 169.195 14.8099 168.761 14.07C168.326 13.3302 167.715 12.751 166.926 12.3323C166.137 11.9137 165.216 11.7044 164.165 11.7044H160.615V21.5456H164.165ZM182 21.5456V22.6468H173.511V10.6032H181.743V11.7044H174.78V15.9884H180.988V17.0723H174.78V21.5456H182Z" fill="white" />
  <defs>
    <linearGradient id="paint0_linear_2_8" x1="49.8928" y1="-0.0357173" x2="0.0560356" y2="-0.0357173" gradientUnits="userSpaceOnUse">
      <stop stop-color="#4252D1" />
      <stop offset="1" stop-color="#609BDB" />
    </linearGradient>
  </defs>
</svg>

<svg xmlns="http://www.w3.org/2000/svg" width="182" height="56" fill="none"><path fill-rule="evenodd" clip-rule="evenodd" d="M38.742 26.9a25.35 25.35 0 0 0-.567-.421c-.192-.14-.384-.28-.566-.42a12.969 12.969 0 0 0-2.227-5.444c0 .72-.081 2.001-.283 3.682a85.68 85.68 0 0 0-.054.376c-.065.463-.135.964-.23 1.466a46.103 46.103 0 0 1-1.012 4.323c-.122.44-.243.88-.405 1.32v-1.08c.04-.92.04-1.841.04-2.762 0-.92 0-1.841-.04-2.722 0-.68-.04-1.401-.08-2.081-.082-1.762-.244-3.443-.405-5.084 0 0-.041-.36-.081-.52l-.122-.841 2.631-.88c.81 1.44 2.308 2.481 4.049 2.641.08 0 .172.01.263.02.09.01.182.02.263.02 2.51 0 4.615-1.721 5.141-4.043.081-.36.122-.76.122-1.16 0-.36-.04-.721-.122-1.041-.364-1.802-1.7-3.283-3.481-3.883-.527-.16-1.093-.28-1.7-.28-2.915 0-5.263 2.321-5.263 5.204 0 .32.04.64.08.96-.53.175-1.06.371-1.606.573-.204.075-.41.152-.62.228C31.05 6.124 28.177 0 24.897 0c-3.279 0-6.153 6.084-7.57 15.01C8.826 11.769 2.065 11.169.405 13.97c-1.66 2.802 2.227 8.286 9.352 14.01C2.632 33.664-1.255 39.108.365 41.95c1.66 2.842 8.42 2.242 16.962-1C18.744 49.875 21.618 56 24.897 56c3.28 0 6.153-6.084 7.57-15.01 8.502 3.242 15.262 3.842 16.922 1.04 1.74-2.882-2.186-8.366-9.27-14.05 7.124-5.684 11.01-11.128 9.391-13.97-.566-.96-1.7-1.521-3.279-1.721.081.4.162.8.162 1.24 0 .481-.08.961-.202 1.402.283.16.485.36.607.64 1.255 2.202-2.065 6.605-8.056 11.328ZM9.959 28.14a.867.867 0 0 0-.202-.16c.04.04.121.12.202.16Zm14.898-.88h.607c.445 0 .769-.08.93-.28.163-.2.284-.521.325-1.041 0-.106.011-.2.022-.29.01-.08.018-.155.018-.23v-.241a.54.54 0 0 0-.243-.44c-.162-.12-.404-.16-.728-.16h-.648l-.284 2.681Zm13.318-15.251-.243 2.281c0 .2 0 .36.162.48v.2c0 .24.04.441.122.601.04.16.162.32.283.44.162.12.324.2.526.28.203.08.446.12.729.12.324 0 .648-.08.89-.16.244-.08.446-.2.608-.4.162-.16.283-.36.364-.6.081-.24.122-.52.162-.8l.04-.521h-1.254l-.081.6c-.04.08-.04.2-.04.24 0 .017-.008.04-.016.068-.011.039-.025.086-.025.133a.556.556 0 0 0-.037.102c-.012.04-.022.075-.044.098-.04.08-.081.12-.122.16-.031.063-.063.076-.114.098a.518.518 0 0 1-.29.062c-.243 0-.365-.08-.446-.24a.995.995 0 0 1-.08-.4v-.32l.283-2.843c0-.04.01-.08.02-.12.01-.04.02-.08.02-.12 0-.08 0-.16.04-.24a.556.556 0 0 0 .037-.102c.012-.04.022-.076.045-.098.04-.08.08-.12.121-.16.032-.063.063-.077.114-.099l.048-.021c.08-.04.162-.04.243-.04h.162c.02 0 .04.01.06.02.02.01.04.02.061.02l.081.08c0 .02.01.03.02.04.01.01.02.02.02.04.041.04.041.08.041.12v.6l-.08.6H41.9l.08-.56v-.36c0-.16 0-.28-.04-.4-.04-.2-.121-.4-.243-.56a.893.893 0 0 0-.526-.4 2.72 2.72 0 0 0-.85-.121c-.365 0-.688.08-.931.16-.284.12-.486.24-.648.44-.162.2-.283.44-.364.68-.122.281-.162.561-.203.922ZM3.2 15.45c1.295-2.162 6.8-1.561 13.966 1.2-.081.481-.121.922-.162 1.402a13.11 13.11 0 0 0-3.643 4.603c.647-.36 1.78-.92 3.36-1.56.335-.154.702-.29 1.082-.432.217-.08.438-.162.658-.25 1.255-.44 2.713-.92 4.291-1.32.223-.06.446-.11.668-.16.223-.05.446-.1.668-.16 0 0 .284-.16.891-.44-.607.32-1.215.64-1.862.96-.127.063-.254.131-.384.202-.2.109-.407.22-.628.318a2.37 2.37 0 0 0-.284.16c-.202.1-.394.21-.587.32-.192.11-.384.22-.587.32-.313.187-.627.367-.939.546-.492.282-.978.561-1.45.856a2.73 2.73 0 0 0-.444.28l-.365.24-.971.6a72.62 72.62 0 0 0-4.21 2.883c-.284.2-.567.4-.81.6-.02 0-.03.01-.04.02-.01.01-.02.02-.041.02-.04.04-.081.07-.121.1-.041.03-.082.06-.122.1-5.91-4.763-9.23-9.206-7.934-11.408Zm25.382 9.967c0 .16 0 .36-.04.56-.041.48-.163.921-.324 1.241-.162.36-.365.6-.648.801-.284.2-.567.36-.89.44-.325.08-.689.12-1.094.12h-.89l-.446 4.163h-1.943l1.012-9.526h2.955c1.58 0 2.308.72 2.308 2.201Zm-12.064-.26c.01-.01.02-.02.04-.02-.04 0-.08.04-.08.04a.556.556 0 0 0-.162.12c.08-.04.121-.08.162-.12.02 0 .03-.01.04-.02Zm8.461 27.68c-2.55 0-4.777-5.084-5.95-12.57.202-.08.414-.17.627-.26.212-.09.425-.18.627-.26 1.457.56 3.036.881 4.696.881.405 0 .81 0 1.214-.04-.647-.4-1.74-1.08-3.076-2.081-.192-.156-.399-.31-.614-.473H22.5a20.786 20.786 0 0 1-.883-.688 42.626 42.626 0 0 1-3.28-3.003c-.323-.32-.647-.64-.93-1a66.683 66.683 0 0 0 1.032.62c.03.02.06.04.101.06.423.27.86.526 1.304.784.28.163.56.327.842.497.81.48 1.62.92 2.429 1.321.303.16.617.32.931.48.314.16.627.32.931.48.931.481 1.862.921 2.793 1.362.304.14.617.28.931.42.314.14.628.28.931.42l.35.136c.305.117.625.24.946.385-1.174 7.485-3.4 12.529-5.951 12.529Zm-4.696-13.09c-.153-.063-.305-.125-.458-.19.148.066.3.13.458.19Zm-.458-.19a9.283 9.283 0 0 1-1-.49l.29.145c.236.118.467.235.71.344Zm-1.91-.671h-.001c-.273.11-.53.216-.789.301C9.96 41.91 4.413 42.55 3.118 40.348c-1.255-2.2 2.064-6.604 8.056-11.327.182.14.374.28.566.42.193.14.385.28.567.42a12.47 12.47 0 0 0 4.655 7.966c.405.32.85.64 1.296.92l-.344.14ZM31.01 16.252c.03.2.06.4.08.6 0 .036.009.072.018.112a.717.717 0 0 1 .023.168c0-.12 0-.2-.04-.28-.04-.44-.081-.84-.122-1.24-1.174-7.486-3.4-12.57-5.95-12.57-2.55 0-4.777 5.044-5.951 12.53-.081.4-.162.8-.203 1.24.486-.24.972-.48 1.498-.68a13.48 13.48 0 0 1 4.615-.841c1.66 0 3.239.32 4.696.88.202-.08.415-.17.627-.26.213-.09.426-.18.628-.26.02.2.05.4.08.6Zm15.747 24.177c-1.295 2.161-6.8 1.561-13.966-1.201.081-.48.122-.92.162-1.401a12.73 12.73 0 0 0 4.655-7.926c.081-.52.122-1.08.162-1.64.228.197.477.374.717.546.1.072.2.143.295.214 5.951 4.803 9.27 9.206 7.975 11.408Z" fill="url(#a)"/><defs><linearGradient id="a" x1="49.893" y1="-.036" x2=".056" y2="-.036" gradientUnits="userSpaceOnUse"><stop stop-color="#4252D1"/><stop offset="1" stop-color="#609BDB"/></linearGradient></defs></svg>
